actions/22x22-dark/irc-operator.svg

<svg viewBox="0 0 22 22" xmlns="http://www.w3.org/2000/svg"><path d="m7.6523438 3c-.8544392 0-1.5488282.6947732-1.5488282 1.5488281v1.5546875h-1.5546875c-.8541189 0-1.5488281.694389-1.5488281 1.5488282 0 .8540549.6947092 1.5488281 1.5488281 1.5488281h1.5546875v3.5976561h-1.5546875c-.8541189 0-1.5488281.694901-1.5488281 1.548828s.6947092 1.548828 1.5488281 1.548828h1.5546875v1.554688c0 .854567.694389 1.548828 1.5488282 1.548828.8541189 0 1.5488281-.694261 1.5488281-1.548828v-1.554688h3.5976561v1.554688c0 .854567.694901 1.548828 1.548828 1.548828.854375 0 1.548828-.694261 1.548828-1.548828v-1.554688h1.554688c.854247 0 1.548828-.694901 1.548828-1.548828s-.694645-1.548828-1.548828-1.548828h-1.554688v-3.5976561h1.554688c.853863 0 1.548828-.6947732 1.548828-1.5488281 0-.8545033-.694901-1.5488282-1.548828-1.5488282h-1.554688v-1.5546875c0-.8540549-.694773-1.5488281-1.548828-1.5488281-.854567 0-1.548828.6947732-1.548828 1.5488281v1.5546875h-3.5976561v-1.5546875c0-.8540549-.6947092-1.5488281-1.5488281-1.5488281zm.8613281 5.5136719h4.9726561v4.9726561h-4.9726561z" fill="#f2f2f2"/></svg>

<svg xmlns="http://www.w3.org/2000/svg" viewBox="0 0 22 22">
  <defs id="defs3051">
    <style type="text/css" id="current-color-scheme">
      .ColorScheme-Text {
        color:#f2f2f2
      }
      </style>
  </defs>
 <path 
     style="fill:currentColor;fill-opacity:1;stroke:none"      
	 class="ColorScheme-Text"
        d="M 7.6523438 3 C 6.7979046 3 6.1035156 3.6947732 6.1035156 4.5488281 L 6.1035156 6.1035156 L 4.5488281 6.1035156 C 3.6947092 6.1035156 3 6.7979046 3 7.6523438 C 3 8.5063987 3.6947092 9.2011719 4.5488281 9.2011719 L 6.1035156 9.2011719 L 6.1035156 12.798828 L 4.5488281 12.798828 C 3.6947092 12.798828 3 13.493729 3 14.347656 C 3 15.201583 3.6947092 15.896484 4.5488281 15.896484 L 6.1035156 15.896484 L 6.1035156 17.451172 C 6.1035156 18.305739 6.7979046 19 7.6523438 19 C 8.5064627 19 9.2011719 18.305739 9.2011719 17.451172 L 9.2011719 15.896484 L 12.798828 15.896484 L 12.798828 17.451172 C 12.798828 18.305739 13.493729 19 14.347656 19 C 15.202031 19 15.896484 18.305739 15.896484 17.451172 L 15.896484 15.896484 L 17.451172 15.896484 C 18.305419 15.896484 19 15.201583 19 14.347656 C 19 13.493729 18.305355 12.798828 17.451172 12.798828 L 15.896484 12.798828 L 15.896484 9.2011719 L 17.451172 9.2011719 C 18.305035 9.2011719 19 8.5063987 19 7.6523438 C 19 6.7978405 18.305099 6.1035156 17.451172 6.1035156 L 15.896484 6.1035156 L 15.896484 4.5488281 C 15.896484 3.6947732 15.201711 3 14.347656 3 C 13.493089 3 12.798828 3.6947732 12.798828 4.5488281 L 12.798828 6.1035156 L 9.2011719 6.1035156 L 9.2011719 4.5488281 C 9.2011719 3.6947732 8.5064627 3 7.6523438 3 z M 8.5136719 8.5136719 L 13.486328 8.5136719 L 13.486328 13.486328 L 8.5136719 13.486328 L 8.5136719 8.5136719 z "
     />
</svg>
